images/anchor.svg

<?xml version="1.0" encoding="UTF-8" standalone="no"?>
<!-- Created with Inkscape (http://www.inkscape.org/) -->

<svg
   xmlns:dc="http://purl.org/dc/elements/1.1/"
   xmlns:cc="http://creativecommons.org/ns#"
   xmlns:rdf="http://www.w3.org/1999/02/22-rdf-syntax-ns#"
   xmlns:svg="http://www.w3.org/2000/svg"
   xmlns="http://www.w3.org/2000/svg"
   xmlns:sodipodi="http://sodipodi.sourceforge.net/DTD/sodipodi-0.dtd"
   xmlns:inkscape="http://www.inkscape.org/namespaces/inkscape"
   version="1.0"
   width="245.48322"
   height="269.85995"
   id="svg2064"
   sodipodi:version="0.32"
   inkscape:version="0.91 r13725"
   sodipodi:docname="anchor.svg"
   inkscape:output_extension="org.inkscape.output.svg.inkscape"
   sodipodi:modified="true">
  <metadata
     id="metadata15">
    <rdf:RDF>
      <cc:Work
         rdf:about="">
        <dc:format>image/svg+xml</dc:format>
        <dc:type
           rdf:resource="http://purl.org/dc/dcmitype/StillImage" />
        <dc:title></dc:title>
      </cc:Work>
    </rdf:RDF>
  </metadata>
  <sodipodi:namedview
     inkscape:window-height="1016"
     inkscape:window-width="1920"
     inkscape:pageshadow="2"
     inkscape:pageopacity="0"
     guidetolerance="10.0"
     gridtolerance="10.0"
     objecttolerance="10.0"
     borderopacity="1.0"
     bordercolor="#666666"
     pagecolor="#ffffff"
     id="base"
     inkscape:zoom="1.9452479"
     inkscape:cx="38.875945"
     inkscape:cy="117.92312"
     inkscape:window-x="0"
     inkscape:window-y="27"
     inkscape:current-layer="svg2064"
     showgrid="false"
     inkscape:window-maximized="1"
     fit-margin-top="0"
     fit-margin-left="0"
     fit-margin-right="0"
     fit-margin-bottom="0" />
  <defs
     id="defs2066" />
  <g
     id="g2170"
     transform="matrix(1.1277335,0,0,1.1277335,-18.789,-36.510372)">
    <path
       id="path1919"
       d="m 126.90625,32.375 c -12.36048,10e-7 -22.37872,9.64618 -22.375,21.53125 -0.004,11.88507 10.01452,21.53125 22.375,21.53125 12.36047,3e-6 22.37872,-9.64618 22.375,-21.53125 0.004,-11.88507 -10.01453,-21.53125 -22.375,-21.53125 z m -0.5,10.46875 c 6.00023,0 10.87681,4.668052 10.875,10.4375 0.002,5.76946 -4.87477,10.437501 -10.875,10.4375 -6.00023,0 -10.8768,-4.668038 -10.875,-10.4375 -0.002,-5.76945 4.87477,-10.437499 10.875,-10.4375 z"
       style="fill:#000000;fill-opacity:1;fill-rule:nonzero;stroke:none;stroke-width:10;stroke-miterlimit:4;stroke-dasharray:none;stroke-opacity:1"
       inkscape:connector-curvature="0" />
    <path
       d="m 118.53707,71.17919 c -1.05318,-0.01862 0,2.07487 0,9.08423 l 0,9.08423 -21.880766,-0.30563 c -17.202677,-0.24028 -22.226961,-0.01831 -23.5,1.03822 -2.035728,1.6895 -2.355871,13.07795 -0.36923,13.13459 l 44.749996,-0.10442 c 0.0502,10.68935 0.18919,21.37955 0.0528,32.06878 -0.50445,22.08005 -0.89167,44.16191 -1.09699,66.24683 -0.0907,11.96075 -0.54567,23.43575 -1.011,25.5 -1.75387,7.78032 -6.6609,8.83712 -21.784616,4.69165 -15.728241,-4.31117 -35.263804,-13.89536 -38.551913,-18.91365 -2.614006,-3.98948 -3.02199,-7.41014 -1.132792,-9.49769 0.941862,-1.04074 2.342299,-1.65058 3.112082,-1.35518 0.851143,0.32661 1.746165,-0.38559 2.283985,-1.81744 1.893166,-5.04024 -4.425697,-12.48968 -16.871502,-19.89015 -3.025,-1.79872 -7.975,-5.66156 -11,-8.58411 -3.173962,-3.06645 -5.973181,-5.01059 -6.618855,-4.59698 -2.009077,1.28699 -6.119771,10.58346 -7.382828,16.69651 -2.539102,12.28898 0.682204,30.42178 6.668262,37.53581 3.159917,3.75535 4.922682,3.7881 5.659272,0.10514 1.297883,-6.48941 9.375086,-4.61753 18.174149,4.21184 6.963913,6.9879 20.224588,17.11783 26,19.86159 2.2,1.04517 5.35,2.74447 7,3.77621 1.65,1.03175 6.6,3.1072 11,4.61211 9.217926,3.15277 20.012466,8.73476 24.286706,12.55895 1.62377,1.4528 4.07609,3.37779 5.44961,4.27775 2.40267,1.57429 2.56162,1.53814 4.1946,-0.9541 3.39955,-5.18837 9.26326,-9.72836 18.14591,-14.04949 4.99226,-2.42858 9.82693,-4.4156 10.74373,-4.4156 1.94871,0 18.39391,-7.2755 28.30068,-12.52046 7.76319,-4.11009 11.26027,-6.58751 19.93314,-14.12117 9.79136,-8.50524 14.74544,-9.46592 19.88407,-3.85585 l 3.20818,3.50253 2.05971,-2.25253 c 3.72664,-4.07549 5.09818,-8.17305 5.81873,-17.38378 0.55098,-7.04321 0.31735,-10.86704 -1.03741,-16.97956 -2.14072,-9.65872 -5.73012,-17.91339 -8.41388,-19.34969 -1.6945,-0.90688 -2.27129,-0.64424 -3.7194,1.6936 -2.51789,4.0649 -6.03622,7.26168 -12.81202,11.64109 -8.11322,5.24383 -13.00914,10.64971 -14.51451,16.02633 -1.45411,5.19359 -0.79213,7.07889 1.9671,5.60219 3.00999,-1.61089 4.971,-1.17154 6.13062,1.37356 1.63265,3.58327 -0.81998,6.46569 -10.29975,12.10467 -16.19084,9.63101 -37.90007,17.51907 -48.21532,17.51907 -4.86756,0 -9.43855,-1.88286 -10.17063,-4.18944 -0.35301,-1.11225 -0.37114,-14.23714 -0.0403,-29.16642 0.33085,-14.92928 0.86611,-42.66403 1.18946,-61.63279 0.32336,-18.96876 0.73947,-34.73387 0.9247,-35.03359 0.18523,-0.29971 10.49723,-0.45027 22.91554,-0.33459 25.76464,0.24002 24.4093,0.72417 24.19598,-8.64317 l -0.12526,-5.5 c -15.38666,-1.07881 -31.13789,0.94184 -46.4599,-1.12656 -0.2892,-0.2892 -0.59164,-3.85321 -0.67208,-7.92003 l -0.14626,-9.16666 -16.22176,-0.28675 z"
       style="fill:#000000"
       id="path1881"
       inkscape:connector-curvature="0" />
  </g>
</svg>

<?xml version="1.0" encoding="UTF-8" standalone="no"?>
<!-- Created with Inkscape (http://www.inkscape.org/) -->
<svg
   xmlns:dc="http://purl.org/dc/elements/1.1/"
   xmlns:cc="http://web.resource.org/cc/"
   xmlns:rdf="http://www.w3.org/1999/02/22-rdf-syntax-ns#"
   xmlns:svg="http://www.w3.org/2000/svg"
   xmlns="http://www.w3.org/2000/svg"
   xmlns:sodipodi="http://sodipodi.sourceforge.net/DTD/sodipodi-0.dtd"
   xmlns:inkscape="http://www.inkscape.org/namespaces/inkscape"
   version="1.0"
   width="251"
   height="304.04999"
   id="svg2064"
   sodipodi:version="0.32"
   inkscape:version="0.45"
   sodipodi:docname="kotva.svg"
   inkscape:output_extension="org.inkscape.output.svg.inkscape"
   sodipodi:docbase="/home/egg"
   sodipodi:modified="true">
  <metadata
     id="metadata15">
    <rdf:RDF>
      <cc:Work
         rdf:about="">
        <dc:format>image/svg+xml</dc:format>
        <dc:type
           rdf:resource="http://purl.org/dc/dcmitype/StillImage" />
      </cc:Work>
    </rdf:RDF>
  </metadata>
  <sodipodi:namedview
     inkscape:window-height="753"
     inkscape:window-width="1024"
     inkscape:pageshadow="2"
     inkscape:pageopacity="0.0"
     guidetolerance="10.0"
     gridtolerance="10.0"
     objecttolerance="10.0"
     borderopacity="1.0"
     bordercolor="#666666"
     pagecolor="#ffffff"
     id="base"
     inkscape:zoom="1.2432166"
     inkscape:cx="125.5"
     inkscape:cy="152.02499"
     inkscape:window-x="0"
     inkscape:window-y="0"
     inkscape:current-layer="svg2064" />
  <defs
     id="defs2066" />
  <g
     id="g2170">
    <path
       id="path1919"
       d="M 126.90625 32.375 C 114.54577 32.375001 104.52753 42.02118 104.53125 53.90625 C 104.52753 65.79132 114.54577 75.4375 126.90625 75.4375 C 139.26672 75.437503 149.28497 65.79132 149.28125 53.90625 C 149.28497 42.02118 139.26672 32.375 126.90625 32.375 z M 126.40625 42.84375 C 132.40648 42.84375 137.28306 47.511802 137.28125 53.28125 C 137.28306 59.05071 132.40648 63.718751 126.40625 63.71875 C 120.40602 63.71875 115.52945 59.050712 115.53125 53.28125 C 115.52945 47.5118 120.40602 42.843751 126.40625 42.84375 z "
       style="fill:#000000;fill-opacity:1;fill-rule:nonzero;stroke:none;stroke-width:10;stroke-miterlimit:4;stroke-dasharray:none;stroke-opacity:1" />
    <path
       d="M 118.53707,71.17919 C 117.48389,71.16057 118.53707,73.25406 118.53707,80.26342 L 118.53707,89.34765 L 96.656304,89.04202 C 79.453627,88.80174 74.429343,89.02371 73.156304,90.08024 C 71.120576,91.76974 70.800433,103.15819 72.787074,103.21483 L 117.53707,103.11041 C 117.58727,113.79976 117.72626,124.48996 117.58982,135.17919 C 117.08537,157.25924 116.69815,179.3411 116.49283,201.42602 C 116.40211,213.38677 115.94716,224.86177 115.48183,226.92602 C 113.72796,234.70634 108.82093,235.76314 93.697214,231.61767 C 77.968973,227.3065 58.43341,217.72231 55.145301,212.70402 C 52.531295,208.71454 52.123311,205.29388 54.012509,203.20633 C 54.954371,202.16559 56.354808,201.55575 57.124591,201.85115 C 57.975734,202.17776 58.870756,201.46556 59.408576,200.03371 C 61.301742,194.99347 54.982879,187.54403 42.537074,180.14356 C 39.512074,178.34484 34.562074,174.482 31.537074,171.55945 C 28.363112,168.493 25.563893,166.54886 24.918219,166.96247 C 22.909142,168.24946 18.798448,177.54593 17.535391,183.65898 C 14.996289,195.94796 18.217595,214.08076 24.203653,221.19479 C 27.36357,224.95014 29.126335,224.98289 29.862925,221.29993 C 31.160808,214.81052 39.238011,216.6824 48.037074,225.51177 C 55.000987,232.49967 68.261662,242.6296 74.037074,245.37336 C 76.237074,246.41853 79.387074,248.11783 81.037074,249.14957 C 82.687074,250.18132 87.637074,252.25677 92.037074,253.76168 C 101.255,256.91445 112.04954,262.49644 116.32378,266.32063 C 117.94755,267.77343 120.39987,269.69842 121.77339,270.59838 C 124.17606,272.17267 124.33501,272.13652 125.96799,269.64428 C 129.36754,264.45591 135.23125,259.91592 144.1139,255.59479 C 149.10616,253.16621 153.94083,251.17919 154.85763,251.17919 C 156.80634,251.17919 173.25154,243.90369 183.15831,238.65873 C 190.9215,234.54864 194.41858,232.07122 203.09145,224.53756 C 212.88281,216.03232 217.83689,215.07164 222.97552,220.68171 L 226.1837,224.18424 L 228.24341,221.93171 C 231.97005,217.85622 233.34159,213.75866 234.06214,204.54793 C 234.61312,197.50472 234.37949,193.68089 233.02473,187.56837 C 230.88401,177.90965 227.29461,169.65498 224.61085,168.21868 C 222.91635,167.3118 222.33956,167.57444 220.89145,169.91228 C 218.37356,173.97718 214.85523,177.17396 208.07943,181.55337 C 199.96621,186.7972 195.07029,192.20308 193.56492,197.5797 C 192.11081,202.77329 192.77279,204.65859 195.53202,203.18189 C 198.54201,201.571 200.50302,202.01035 201.66264,204.55545 C 203.29529,208.13872 200.84266,211.02114 191.36289,216.66012 C 175.17205,226.29113 153.46282,234.17919 143.14757,234.17919 C 138.28001,234.17919 133.70902,232.29633 132.97694,229.98975 C 132.62393,228.8775 132.6058,215.75261 132.93665,200.82333 C 133.2675,185.89405 133.80276,158.1593 134.12611,139.19054 C 134.44947,120.22178 134.86558,104.45667 135.05081,104.15695 C 135.23604,103.85724 145.54804,103.70668 157.96635,103.82236 C 183.73099,104.06238 182.37565,104.54653 182.16233,95.17919 L 182.03707,89.67919 C 166.65041,88.60038 150.89918,90.62103 135.57717,88.55263 C 135.28797,88.26343 134.98553,84.69942 134.90509,80.6326 L 134.75883,71.46594 L 118.53707,71.17919 z "
       style="fill:#000000"
       id="path1881" />
  </g>
</svg>
